src/assets/icons/menu-assets.svg

<?xml version="1.0" encoding="UTF-8"?>
<svg width="24px" height="24px" viewBox="0 0 24 24" version="1.1" xmlns="http://www.w3.org/2000/svg" xmlns:xlink="http://www.w3.org/1999/xlink">
    <title>矩形</title>
    <g id="扩展程序" stroke="none" stroke-width="1" fill="none" fill-rule="evenodd">
        <g id="NFT" transform="translate(-26.000000, -552.000000)">
            <g id="底部菜单" transform="translate(0.000000, 528.000000)">
                <g id="编组-7" transform="translate(26.000000, 24.000000)">
                    <rect id="矩形" x="0" y="0" width="24" height="24"></rect>
                    <path d="M12,1 C18.0751322,1 23,3.6862915 23,7 C23,7.88760049 22.6466533,8.73018541 22.0125005,9.48818718 L22.0023301,9.49969202 C22.6428742,10.2608283 23,11.1076656 23,12 C23,12.8876005 22.6466533,13.7301854 22.0125005,14.4881872 L22.0023301,14.499692 C22.6428742,15.2608283 23,16.1076656 23,17 C23,20.3137085 18.0751322,23 12,23 C5.92486775,23 1,20.3137085 1,17 C1,16.1076656 1.35712578,15.2608283 1.99766991,14.499692 L1.98749952,14.4881872 C1.3533467,13.7301854 1,12.8876005 1,12 C1,11.1076656 1.35712578,10.2608283 1.99766991,9.49969202 L1.98749952,9.48818718 C1.3533467,8.73018541 1,7.88760049 1,7 C1,3.6862915 5.92486775,1 12,1 Z M12,18 C8.53866628,18 5.45073159,17.1279757 3.43432308,15.7647236 L3.43728625,15.766726 C3.15305042,16.1547984 3,16.5694554 3,17 C3,19.209139 7.02943725,21 12,21 C16.9705627,21 21,19.209139 21,17 C21,16.5694554 20.8469496,16.1547984 20.5637103,15.7661895 L20.5834236,15.7526939 C18.5674117,17.1228436 15.4715041,18 12,18 Z M20.5834236,10.7526939 C18.5674117,12.1228436 15.4715041,13 12,13 C8.68288852,13 5.70870775,12.1991304 3.69190451,10.9325441 L3.437,10.766 L3.3235664,10.9346392 C3.11244521,11.273596 3,11.6309618 3,12 C3,14.209139 7.02943725,16 12,16 C16.9705627,16 21,14.209139 21,12 C21,11.5694554 20.8469496,11.1547984 20.5637103,10.7661895 L20.5834236,10.7526939 Z M12,3 C7.02943725,3 3,4.790861 3,7 C3,9.209139 7.02943725,11 12,11 C16.9705627,11 21,9.209139 21,7 C21,4.790861 16.9705627,3 12,3 Z" id="形状结合" fill="#6E7585" fill-rule="nonzero" opacity="0.5"></path>
                </g>
            </g>
        </g>
    </g>
</svg>

<svg width="24" height="24" xmlns="http://www.w3.org/2000/svg"><g fill="none" fill-rule="evenodd"><path d="M0 0h24v24H0z"/><path d="M12 1c6.075 0 11 2.686 11 6 0 .888-.353 1.73-.987 2.488l-.01.012c.64.76.997 1.608.997 2.5 0 .888-.353 1.73-.987 2.488l-.01.012c.64.76.997 1.608.997 2.5 0 3.314-4.925 6-11 6S1 20.314 1 17c0-.892.357-1.74.998-2.5l-.01-.012C1.352 13.73 1 12.888 1 12c0-.892.357-1.74.998-2.5l-.01-.012C1.352 8.73 1 7.888 1 7c0-3.314 4.925-6 11-6zm0 17c-3.461 0-6.55-.872-8.566-2.235l.003.002C3.153 16.155 3 16.569 3 17c0 2.21 4.03 4 9 4s9-1.79 9-4c0-.43-.153-.845-.436-1.234l.02-.013C18.566 17.123 15.471 18 12 18zm8.583-7.247C18.567 12.123 15.472 13 12 13c-3.317 0-6.291-.8-8.308-2.067l-.255-.167-.113.169A2 2 0 0 0 3 12c0 2.21 4.03 4 9 4s9-1.79 9-4c0-.43-.153-.845-.436-1.234l.02-.013zM12 3C7.03 3 3 4.79 3 7s4.03 4 9 4 9-1.79 9-4-4.03-4-9-4z" fill="#6E7585" fill-rule="nonzero" opacity=".5"/></g></svg>
